X:27
T:Cooley's Reel
C:Traditional
M:4/4
L:1/8
Q:1/8=420
K:G
|:"Em"EBBA B2EB|B2AB dBAG|"D"FDAD BDAD|FDFA dAFD|
"Em"EBBA B2EB|B2AB defg|"D"afge dBAF|
"D"DEFD "Am"EGFD:|2 "D"DEFD "Em"Egfg|
|:"Em"eBBB eBgB|eBBB gedB|"D"A2FA dAFB|ADFA B^cdf|
"Em"eBBB eBgB|edB^c defg|"D"afge dBAF|1"D"DEFD "Em"Egfg\
:|2"D"DEFD "Em"EGFD|
